public/images/headless-logo.svg

<svg width="213" height="225" viewBox="0 0 213 225" fill="none" xmlns="http://www.w3.org/2000/svg">
<path d="M212.505 50.8076C212.505 23.0597 190.334 0.208527 162.819 0.208527C152.401 0.208527 142.517 3.47303 134.503 9.18582L24.3207 137.647C23.0459 139.133 24.4453 141.377 26.3406 140.885L49.5561 134.867L0.574923 221.448C-0.328701 223.046 1.21615 224.915 2.95502 224.328L40.5548 211.643C41.1736 211.434 41.6515 210.936 41.8349 210.31L57.6617 156.238C57.9213 155.351 58.7174 154.757 59.641 154.793C81.0598 155.616 192.964 155.703 211.17 61.145V60.873C211.437 58.9687 211.971 57.0645 212.238 55.1602H211.971C212.238 53.528 212.505 52.1678 212.505 50.8076ZM102.792 119.416C102.139 119.557 101.823 118.75 102.354 118.345C102.416 118.297 102.489 118.261 102.564 118.238C159.612 101.257 166.177 65.1242 166.912 55.7561C167.017 54.4128 167.89 53.222 169.176 52.8203L177.82 50.1203C179.98 49.4454 182.066 51.3233 181.508 53.5169C169.066 102.488 115.052 116.777 102.792 119.416Z" fill="#3BECCD"/>
</svg>

<svg width="213" height="225" fill="none" xmlns="http://www.w3.org/2000/svg"><path d="M212.505 50.808c0-27.748-22.171-50.6-49.686-50.6-10.418 0-20.302 3.265-28.316 8.978L24.321 137.647c-1.275 1.486.124 3.73 2.02 3.238l23.215-6.018L.575 221.448c-.904 1.598.641 3.467 2.38 2.88l37.6-12.685a2.002 2.002 0 0 0 1.28-1.333l15.827-54.072c.26-.887 1.055-1.481 1.979-1.445 21.419.823 133.323.91 151.529-93.648v-.272c.267-1.904.801-3.808 1.068-5.713h-.267c.267-1.632.534-2.992.534-4.352Zm-109.713 68.608c-.653.141-.969-.666-.438-1.071a.662.662 0 0 1 .21-.107c57.048-16.981 63.613-53.114 64.348-62.482.105-1.343.978-2.534 2.264-2.936l8.644-2.7c2.16-.675 4.246 1.203 3.688 3.397-12.442 48.971-66.456 63.26-78.716 65.899Z" fill="#3BECCD"/></svg>
